X:148
T: IN DEM FRUEHLING IN DEM SOMMER
N: E0731B
O: Europa, Mitteleuropa, Deutschland, Uckermark, Angermuende
R: Liebes - Lied, Leid, Klage, Tod
M: 3/4
L: 1/16
K: F
F2A2 | c4A2F2B2d2 | d2c2c4
F2A2 | c4A2F2B2d2 | d2c2c4
F2A2 | c4f4d2fd | c6
d2c2B2 | A4c4B2cB | A4z4

@@@ Tune index: 4461
